src/pos-icons/microsoft-xbox-controller-battery-full.svg

<svg height="24" viewBox="0 0 24 24" width="24" xmlns="http://www.w3.org/2000/svg"><path d="m21.67 5c.73 0 1.33.6 1.33 1.33v13.34a1.33 1.33 0 0 1 -1.33 1.33h-7.34c-.73 0-1.33-.6-1.33-1.33v-2.92h-5.25c-2 0-2.75 2.25-4.75 3.25-2 0-3.5-3 .5-11.5h.25l.44-.83s2.81-1.67 4.14-.44h4.67v-.9a1.33 1.33 0 0 1 1.33-1.33h1.67v-2h4v2zm-10.67 3a1 1 0 0 0 -1 1 1 1 0 0 0 1 1 1 1 0 0 0 1-1 1 1 0 0 0 -1-1z"/></svg>

<?xml version="1.0" encoding="UTF-8"?><!DOCTYPE svg PUBLIC "-//W3C//DTD SVG 1.1//EN" "http://www.w3.org/Graphics/SVG/1.1/DTD/svg11.dtd"><svg xmlns="http://www.w3.org/2000/svg" xmlns:xlink="http://www.w3.org/1999/xlink" version="1.1" id="mdi-microsoft-xbox-controller-battery-full" width="24" height="24" viewBox="0 0 24 24"><path d="M21.67,5C22.4,5 23,5.6 23,6.33V19.67A1.33,1.33 0 0,1 21.67,21H14.33C13.6,21 13,20.4 13,19.67V16.75H7.75C5.75,16.75 5,19 3,20C1,20 -0.5,17 3.5,8.5H3.75L4.19,7.67C4.19,7.67 7,6 8.33,7.23H13V6.33A1.33,1.33 0 0,1 14.33,5H16V3H20V5H21.67M11,8A1,1 0 0,0 10,9A1,1 0 0,0 11,10A1,1 0 0,0 12,9A1,1 0 0,0 11,8Z" /></svg>
